img/customer-logo-3.svg

<svg width="152" height="23" viewBox="0 0 152 23" fill="none" xmlns="http://www.w3.org/2000/svg">
<path d="M25.227 19.317C23.1992 17.2209 22.1803 14.725 22.1803 11.8311C22.1803 10.2515 22.4675 8.76503 23.0377 7.38449C23.614 6.00614 24.3756 4.85097 25.3327 3.91501C26.2818 2.98284 27.3805 2.24539 28.6187 1.71062C29.8589 1.17584 31.137 0.910642 32.453 0.910642C35.2783 0.910642 37.7308 1.93221 39.8125 3.97475C41.8921 6.01052 42.933 8.53964 42.933 11.5586C42.933 14.5775 41.9341 17.1504 39.9561 19.2756C37.9702 21.4023 35.5276 22.4587 32.6285 22.4587C29.7313 22.4587 27.2668 21.4147 25.227 19.317ZM46.4124 19.317C44.3806 17.2209 43.3617 14.725 43.3617 11.8311C43.3617 10.2515 43.6528 8.76503 44.223 7.38449C44.7913 6.00614 45.557 4.85097 46.5101 3.91501C47.4671 2.98284 48.5598 2.24539 49.804 1.71062C51.0382 1.17584 52.3203 0.910642 53.6383 0.910642C56.4577 0.910642 58.9162 1.93221 60.9959 3.97475C63.0715 6.01052 64.1123 8.53964 64.1123 11.5586C64.1123 14.5775 63.1234 17.1504 61.1374 19.2756C59.1495 21.4023 56.7129 22.4587 53.8138 22.4587C50.9126 22.4587 48.4442 21.4147 46.4124 19.317ZM115.194 19.317C113.161 17.2209 112.148 14.725 112.148 11.8311C112.148 10.2515 112.435 8.76503 113.005 7.38449C113.579 6.00614 114.343 4.85097 115.296 3.91501C116.251 2.98284 117.348 2.24539 118.586 1.71062C119.826 1.17584 121.106 0.910642 122.42 0.910642C125.252 0.910642 127.698 1.93221 129.778 3.97475C131.86 6.01052 132.896 8.53964 132.896 11.5586C132.896 14.5775 131.905 17.1504 129.917 19.2756C127.937 21.4023 125.495 22.4587 122.592 22.4587C119.693 22.4587 117.226 21.4147 115.194 19.317ZM132.777 21.3878C132.025 20.7121 131.654 20.1323 131.654 19.657C131.654 19.184 131.983 18.5724 132.649 17.8297L138.404 11.5136L132.649 5.199C131.983 4.49419 131.654 3.89251 131.654 3.40074C131.654 2.903 132.019 2.31885 132.769 1.64311C133.508 0.966579 134.135 0.625132 134.639 0.625132C135.143 0.625132 135.732 1.0074 136.404 1.76954L141.839 8.00289L147.276 1.76954C147.962 1.0074 148.551 0.625132 149.035 0.625132C149.524 0.625132 150.136 0.961602 150.883 1.6234C151.625 2.29695 152 2.88468 152 3.40074C152 3.91501 151.671 4.5145 151.027 5.199L145.271 11.5136L151.027 17.8297C151.671 18.5578 152 19.1667 152 19.657C152 20.157 151.629 20.7381 150.891 21.4023C150.164 22.0693 149.546 22.4064 149.035 22.4064C148.529 22.4058 147.944 22.0227 147.276 21.2657L141.839 15.0324L136.404 21.2657C135.712 22.0227 135.128 22.4064 134.639 22.4064C134.153 22.4064 133.532 22.0641 132.777 21.3878ZM8.90684 21.7657C8.52401 21.3878 8.33661 20.6706 8.33661 19.5983L8.31465 14.6466L3.34983 14.6255C2.28109 14.6255 1.55732 14.4345 1.17449 14.058C0.801628 13.6803 0.6122 12.9536 0.620176 11.8805C0.626158 10.8044 0.815585 10.0866 1.17449 9.72328C1.54336 9.36511 2.25918 9.17836 3.32194 9.17836L8.29075 9.20384L8.24689 4.26464C8.24689 3.19787 8.43034 2.47853 8.80121 2.1102C9.17207 1.74406 9.88985 1.55591 10.9606 1.55591C12.0313 1.55591 12.7511 1.74406 13.13 2.12413C13.5108 2.49903 13.7002 3.22036 13.7002 4.28932L13.7222 9.24385L18.687 9.26695C19.7497 9.26695 20.4815 9.45809 20.8604 9.83378C21.2293 10.2117 21.4207 10.9286 21.4107 11.9916C21.4027 13.0452 21.2113 13.7681 20.8444 14.1315C20.4716 14.5034 19.7497 14.6924 18.687 14.6924L13.766 14.6707V19.5983C13.766 20.6714 13.5866 21.3842 13.2217 21.746C12.8608 22.1143 12.143 22.2989 11.0742 22.3178C10.0035 22.3301 9.2817 22.1477 8.90684 21.7657ZM65.1472 21.034C65.0295 20.7244 64.9697 20.2384 64.9697 19.575V3.68625C64.9697 3.24665 64.9897 2.91813 65.0176 2.69654C65.0475 2.47853 65.1332 2.23165 65.2887 1.94674C65.5559 1.4259 66.2997 1.16787 67.5239 1.16787C68.8619 1.16787 69.6534 1.51808 69.8987 2.23085C69.9944 2.55279 70.0422 3.04676 70.0422 3.71812V17.8914H77.8245C78.4565 17.8914 78.9171 17.9591 79.2023 18.1029C79.4834 18.246 79.6788 18.472 79.7745 18.7707C79.8643 19.0773 79.9181 19.4834 79.9181 19.9899C79.9181 20.494 79.8643 20.9002 79.7745 21.1996C79.6788 21.509 79.5093 21.7205 79.284 21.8296C78.9251 22.0227 78.4247 22.1195 77.7906 22.1195H67.492C66.1561 22.1195 65.3765 21.7569 65.1472 21.034ZM98.4415 21.034C98.3239 20.7244 98.2681 20.2384 98.2681 19.575V3.68625C98.2681 3.24665 98.282 2.91813 98.3099 2.69654C98.3418 2.47853 98.4276 2.23085 98.5871 1.94674C98.8463 1.4259 99.594 1.16787 100.816 1.16787C102.154 1.16787 102.942 1.51808 103.195 2.23085C103.289 2.55279 103.333 3.04676 103.333 3.71812V17.8914H111.121C111.749 17.8914 112.207 17.9591 112.493 18.1029C112.78 18.246 112.969 18.472 113.061 18.7707C113.161 19.0773 113.208 19.4834 113.208 19.9899C113.208 20.494 113.161 20.9002 113.061 21.1996C112.969 21.509 112.806 21.7205 112.576 21.8296C112.212 22.0227 111.721 22.1195 111.095 22.1195H100.782C99.4504 22.1195 98.6748 21.7569 98.4415 21.034ZM80.9429 21.0011C80.8333 20.6794 80.7735 20.1882 80.7735 19.5213V3.65937C80.7735 3.19787 80.7874 2.86657 80.8193 2.65512C80.8473 2.44886 80.935 2.1988 81.0905 1.91409C81.3537 1.39743 82.0994 1.14677 83.3277 1.14677H90.5357C92.2963 1.14677 93.7578 1.74844 94.9442 2.97189C96.1804 4.20868 96.8065 5.69515 96.8065 7.43167C96.8065 8.6836 96.4436 9.83736 95.7178 10.8866C96.8384 12.2219 97.4007 13.713 97.4007 15.3747C97.3628 17.2768 96.7128 18.8716 95.4427 20.1635C94.1765 21.4473 92.6353 22.0888 90.8248 22.0888H83.2938C81.9578 22.0888 81.1762 21.73 80.9429 21.0011ZM36.2334 15.8622C37.3201 14.8319 37.8645 13.4484 37.8645 11.7162C37.8645 9.97972 37.3201 8.59061 36.2195 7.54137C35.1209 6.49372 33.8966 5.9699 32.5407 5.9699C31.1888 5.9699 29.9646 6.50169 28.8759 7.56109C27.7952 8.6175 27.2469 9.98987 27.2469 11.688C27.2469 13.3817 27.7992 14.7614 28.8879 15.8149C29.9885 16.8735 31.2168 17.4025 32.5666 17.4025C33.9245 17.4025 35.1487 16.888 36.2334 15.8622ZM57.4168 15.8622C58.5054 14.8319 59.0418 13.4484 59.0418 11.7162C59.0418 9.97972 58.5015 8.59061 57.4028 7.54137C56.3022 6.49372 55.0819 5.9699 53.726 5.9699C52.3722 5.9699 51.1499 6.5009 50.0632 7.56109C48.9746 8.6175 48.4262 9.98987 48.4262 11.688C48.4262 13.3817 48.9786 14.7614 50.0772 15.8149C51.1719 16.8735 52.3941 17.4025 53.752 17.4025C55.1098 17.4025 56.3301 16.888 57.4168 15.8622ZM126.201 15.8622C127.289 14.8319 127.832 13.4484 127.832 11.7162C127.832 9.97972 127.283 8.59061 126.187 7.54137C125.09 6.49372 123.862 5.9699 122.502 5.9699C121.154 5.9699 119.932 6.50169 118.843 7.56109C117.757 8.6175 117.212 9.98987 117.212 11.688C117.212 13.3817 117.763 14.7614 118.857 15.8149C119.956 16.8735 121.182 17.4025 122.536 17.4025C123.892 17.4025 125.112 16.888 126.201 15.8622ZM92.3402 15.0905C92.3402 14.6328 92.2863 14.2681 92.1787 14.0029C92.073 13.7363 91.8995 13.5479 91.6483 13.4267C91.2714 13.2814 90.7371 13.2037 90.0472 13.2037C89.3633 13.2037 88.8488 13.0743 88.5019 12.8017C88.1589 12.5329 87.9874 11.9874 87.9874 11.159C87.9874 10.3299 88.1689 9.78281 88.5158 9.51702C88.8707 9.25023 89.4629 9.11524 90.2804 9.11524C91.0421 9.11524 91.4987 8.91236 91.6483 8.51277C91.7061 8.30073 91.742 7.96068 91.742 7.48762C91.742 7.00819 91.5765 6.6753 91.2654 6.48715C90.9484 6.29542 90.4799 6.20304 89.8478 6.20304H85.844L85.842 17.0254H90.5357C91.742 17.0254 92.3402 16.3831 92.3402 15.0905Z" fill="#78788B"/>
</svg>

<svg width="152" height="23" fill="none" xmlns="http://www.w3.org/2000/svg"><path d="M25.227 19.317c-2.028-2.096-3.047-4.592-3.047-7.486 0-1.58.288-3.066.858-4.447.576-1.378 1.338-2.533 2.295-3.469a10.72 10.72 0 013.286-2.204 9.589 9.589 0 013.834-.8c2.825 0 5.278 1.021 7.36 3.064 2.08 2.036 3.12 4.565 3.12 7.584 0 3.019-.999 5.591-2.977 7.717-1.986 2.126-4.428 3.183-7.328 3.183-2.897 0-5.361-1.044-7.401-3.142zm21.185 0c-2.031-2.096-3.05-4.592-3.05-7.486 0-1.58.29-3.066.861-4.447.568-1.378 1.334-2.533 2.287-3.469a10.77 10.77 0 013.294-2.204 9.56 9.56 0 013.834-.8c2.82 0 5.278 1.021 7.358 3.064 2.075 2.036 3.116 4.565 3.116 7.584 0 3.019-.989 5.591-2.975 7.717-1.987 2.126-4.424 3.183-7.323 3.183-2.901 0-5.37-1.044-7.402-3.142zm68.782 0c-2.033-2.096-3.046-4.592-3.046-7.486 0-1.58.287-3.066.857-4.447.574-1.378 1.338-2.533 2.291-3.469a10.811 10.811 0 013.29-2.204 9.59 9.59 0 013.834-.8c2.832 0 5.278 1.021 7.358 3.064 2.082 2.036 3.118 4.565 3.118 7.584 0 3.019-.991 5.591-2.979 7.717-1.98 2.126-4.422 3.183-7.325 3.183-2.899 0-5.366-1.044-7.398-3.142zm17.583 2.07c-.752-.675-1.123-1.255-1.123-1.73 0-.473.329-1.085.995-1.827l5.755-6.316-5.755-6.315c-.666-.705-.995-1.306-.995-1.798 0-.498.365-1.082 1.115-1.758.739-.676 1.366-1.018 1.87-1.018s1.093.382 1.765 1.145l5.435 6.233 5.437-6.233c.686-.763 1.275-1.145 1.759-1.145.489 0 1.101.337 1.848.998.742.674 1.117 1.262 1.117 1.778 0 .514-.329 1.114-.973 1.798l-5.756 6.315 5.756 6.316c.644.728.973 1.337.973 1.827 0 .5-.371 1.081-1.109 1.745-.727.667-1.345 1.004-1.856 1.004-.506 0-1.091-.383-1.759-1.14l-5.437-6.234-5.435 6.234c-.692.757-1.276 1.14-1.765 1.14-.486 0-1.107-.342-1.862-1.018zm-123.87.379c-.383-.378-.57-1.095-.57-2.168l-.022-4.951-4.965-.021c-1.069 0-1.793-.191-2.176-.568C.802 13.68.612 12.954.62 11.88c.006-1.076.196-1.793.554-2.157.37-.358 1.085-.545 2.148-.545l4.969.026-.044-4.94c0-1.066.183-1.785.554-2.154.371-.366 1.089-.554 2.16-.554 1.07 0 1.79.188 2.169.568.38.375.57 1.096.57 2.165l.022 4.955 4.965.023c1.063 0 1.794.191 2.173.567.37.378.56 1.095.55 2.158-.007 1.053-.199 1.776-.566 2.14-.372.371-1.094.56-2.157.56l-4.921-.021v4.927c0 1.073-.18 1.786-.544 2.148-.361.368-1.079.553-2.148.572-1.07.012-1.792-.17-2.167-.552zm56.24-.732c-.118-.31-.177-.796-.177-1.459V3.686c0-.44.02-.768.048-.99.03-.217.115-.464.27-.75.268-.52 1.012-.778 2.236-.778 1.338 0 2.13.35 2.375 1.063.095.322.143.816.143 1.487v14.173h7.782c.633 0 1.093.068 1.378.212.281.143.477.369.573.668.09.306.143.712.143 1.219 0 .504-.054.91-.144 1.21-.095.309-.265.52-.49.63-.359.193-.86.29-1.493.29H67.492c-1.336 0-2.116-.363-2.345-1.086zm33.294 0c-.117-.31-.173-.796-.173-1.459V3.686c0-.44.014-.768.042-.99.032-.217.118-.465.277-.75.26-.52 1.007-.778 2.229-.778 1.338 0 2.126.35 2.379 1.063.094.322.138.816.138 1.487v14.173h7.788c.628 0 1.086.068 1.372.212.287.143.476.369.568.668.1.306.147.712.147 1.219 0 .504-.047.91-.147 1.21-.092.309-.255.52-.485.63-.364.193-.855.29-1.481.29h-10.313c-1.332 0-2.107-.363-2.34-1.086zm-17.498-.033c-.11-.322-.17-.813-.17-1.48V3.66c0-.461.014-.792.046-1.004.028-.206.116-.456.272-.74.263-.518 1.008-.768 2.237-.768h7.208c1.76 0 3.222.601 4.408 1.825 1.236 1.237 1.862 2.723 1.862 4.46a5.949 5.949 0 01-1.088 3.455c1.12 1.335 1.683 2.826 1.683 4.488-.038 1.902-.688 3.497-1.958 4.788-1.266 1.284-2.808 1.926-4.618 1.926h-7.531c-1.336 0-2.118-.359-2.351-1.088zm-44.71-5.139c1.087-1.03 1.632-2.414 1.632-4.146 0-1.736-.545-3.125-1.646-4.175-1.098-1.047-2.322-1.571-3.678-1.571-1.352 0-2.576.532-3.665 1.591-1.08 1.056-1.63 2.429-1.63 4.127 0 1.694.553 3.073 1.642 4.127 1.1 1.059 2.329 1.588 3.679 1.588 1.358 0 2.582-.515 3.666-1.54zm21.184 0c1.088-1.03 1.625-2.414 1.625-4.146 0-1.736-.54-3.125-1.64-4.175-1.1-1.047-2.32-1.571-3.676-1.571-1.354 0-2.576.53-3.663 1.591-1.088 1.056-1.637 2.429-1.637 4.127 0 1.694.553 3.073 1.651 4.127 1.095 1.059 2.317 1.588 3.675 1.588 1.358 0 2.578-.515 3.665-1.54zm68.784 0c1.088-1.03 1.631-2.414 1.631-4.146 0-1.736-.549-3.125-1.645-4.175-1.097-1.047-2.325-1.571-3.685-1.571-1.348 0-2.57.532-3.659 1.591-1.086 1.056-1.631 2.429-1.631 4.127 0 1.694.551 3.073 1.645 4.127 1.099 1.059 2.325 1.588 3.679 1.588 1.356 0 2.576-.515 3.665-1.54zm-33.86-.771c0-.458-.055-.823-.162-1.088a1.033 1.033 0 00-.53-.576c-.378-.146-.912-.223-1.602-.223-.684 0-1.198-.13-1.545-.402-.343-.27-.515-.815-.515-1.643 0-.83.182-1.376.529-1.642.355-.267.947-.402 1.764-.402.762 0 1.219-.203 1.368-.602.058-.212.094-.552.094-1.025 0-.48-.166-.813-.477-1-.317-.193-.785-.285-1.417-.285h-4.004l-.002 10.822h4.694c1.206 0 1.804-.642 1.804-1.934z" fill="#78788B"/></svg>
